docs/img/harbors_logo_w.svg

<svg viewBox="0 0 219.13 105.64" xmlns="http://www.w3.org/2000/svg"><g fill="#fff"><path d="m214.51 53.38v7.25c-8.66 0-17.15 0-25.64 0-3.56 0-6.24 1.18-7.51 4.69-1.79 5 1.22 9.69 6.51 9.87s10.66 0 16 .08c8.75.18 14.76 5.65 15.22 13.72.5 8.51-5 15.59-13.67 16.06-10.47.57-21 .13-31.78.13v-7.6h12c6.14 0 12.27.11 18.4-.08 4.16-.13 6.8-3.27 6.71-7.41-.09-4-2.66-6.89-6.67-7-5.19-.19-10.4 0-15.6-.09-9.87-.12-15.95-5.88-15.91-15 0-8.91 6.45-14.93 16.11-15 8.26-.05 16.53 0 24.8 0a4.56 4.56 0 0 1 1.03.38z"/><path d="m45.46 105h-8.16v-21.84h-28.62v21.66h-8.68v-51.65h8.31v21.83h28.85v-21.92h8.3z"/><path d="m78.52 39.2-4.66-4 31.27-35.2c13.26 11.67 26.43 23.24 39.9 35.1l-15.66 17.63-4.64-4 11.45-13-6.79-6.21-11.65 13-4.64-4 11.58-13.07-7-6.05-11.57 12.9-4.57-4.06 11.46-13-7.33-6.49z"/><path d="m98.22 66.33h6.09v17.46a38.22 38.22 0 0 1 5.13-1.43c6.53-.85 12.09 3.4 12.81 9.65.79 6.89-3.78 12.82-10.43 13.54-7.24.79-13.3-3.52-13.52-10.23-.3-9.52-.08-19.07-.08-28.99zm18.06 27.76a6 6 0 0 0 -6-6.16 5.77 5.77 0 0 0 -5.92 5.71 5.7 5.7 0 0 0 5.68 6.3 5.82 5.82 0 0 0 6.24-5.85z"/><path d="m75.84 104.7c-4.54.32-8.65.78-12.76.84-6.45.11-11.06-4.45-11.32-10.87a12 12 0 0 1 11-12.4c6.91-.54 12.6 3.67 13 10 .31 4.04.08 8.16.08 12.43zm-11.84-4.79a6 6 0 1 0 -.45-12 6 6 0 0 0 .45 12z"/><path d="m138.76 105.58c-7.1 0-12-4.65-12-11.51 0-6.71 5.39-11.89 12.33-11.83s12 5.05 11.91 11.76a12 12 0 0 1 -12.24 11.58zm6-11.7a5.72 5.72 0 0 0 -6-6 6 6 0 0 0 .06 12 5.72 5.72 0 0 0 5.91-6z"/><path d="m82.22 105.25c0-5.55-.28-10.57.09-15.55.34-4.7 4.14-7.07 10.14-6.7v4.9c-4.14.3-4.35 3.26-4.16 6.66s0 6.6 0 10.37z"/><path d="m166.87 83.31v4.91c-3.85 0-4.7 2.33-4.47 5.75s.06 7.14.06 11h-5.81c0-5.39-.36-10.69.11-15.91.41-4.45 4.61-6.6 10.11-5.75z"/></g></svg>

<svg xmlns="http://www.w3.org/2000/svg" viewBox="0 0 219.13 105.64"><defs><style>.cls-1{fill:#fff;}</style></defs><g id="レイヤー_2" data-name="レイヤー 2"><g id="レイヤー_1-2" data-name="レイヤー 1"><path class="cls-1" d="M214.51,53.38v7.25c-8.66,0-17.15,0-25.64,0-3.56,0-6.24,1.18-7.51,4.69-1.79,5,1.22,9.69,6.51,9.87s10.66,0,16,.08c8.75.18,14.76,5.65,15.22,13.72.5,8.51-5,15.59-13.67,16.06-10.47.57-21,.13-31.78.13v-7.6h12c6.14,0,12.27.11,18.4-.08,4.16-.13,6.8-3.27,6.71-7.41-.09-4-2.66-6.89-6.67-7-5.19-.19-10.4,0-15.6-.09-9.87-.12-15.95-5.88-15.91-15,0-8.91,6.45-14.93,16.11-15,8.26-.05,16.53,0,24.8,0A4.56,4.56,0,0,1,214.51,53.38Z"/><path class="cls-1" d="M45.46,105H37.3V83.16H8.68v21.66H0V53.17H8.31V75H37.16V53.08h8.3Z"/><path class="cls-1" d="M78.52,39.2l-4.66-4L105.13,0c13.26,11.67,26.43,23.24,39.9,35.1L129.37,52.73l-4.64-4,11.45-13-6.79-6.21-11.65,13-4.64-4,11.58-13.07-7-6.05-11.57,12.9-4.57-4.06,11.46-13-7.33-6.49Z"/><path class="cls-1" d="M98.22,66.33h6.09V83.79a38.22,38.22,0,0,1,5.13-1.43c6.53-.85,12.09,3.4,12.81,9.65.79,6.89-3.78,12.82-10.43,13.54-7.24.79-13.3-3.52-13.52-10.23C98,85.8,98.22,76.25,98.22,66.33Zm18.06,27.76a6,6,0,0,0-6-6.16,5.77,5.77,0,0,0-5.92,5.71,5.7,5.7,0,0,0,5.68,6.3A5.82,5.82,0,0,0,116.28,94.09Z"/><path class="cls-1" d="M75.84,104.7c-4.54.32-8.65.78-12.76.84-6.45.11-11.06-4.45-11.32-10.87a12,12,0,0,1,11-12.4c6.91-.54,12.6,3.67,13,10C76.07,96.31,75.84,100.43,75.84,104.7ZM64,99.91a6,6,0,1,0-.45-12,6,6,0,0,0,.45,12Z"/><path class="cls-1" d="M138.76,105.58c-7.1,0-12-4.65-12-11.51,0-6.71,5.39-11.89,12.33-11.83S151.09,87.29,151,94A12,12,0,0,1,138.76,105.58Zm6-11.7a5.72,5.72,0,0,0-6-6,6,6,0,0,0,.06,12A5.72,5.72,0,0,0,144.73,93.88Z"/><path class="cls-1" d="M82.22,105.25c0-5.55-.28-10.57.09-15.55C82.65,85,86.45,82.63,92.45,83v4.9c-4.14.3-4.35,3.26-4.16,6.66s0,6.6,0,10.37Z"/><path class="cls-1" d="M166.87,83.31v4.91c-3.85,0-4.7,2.33-4.47,5.75s.06,7.14.06,11h-5.81c0-5.39-.36-10.69.11-15.91C157.17,84.61,161.37,82.46,166.87,83.31Z"/></g></g></svg>
